images/growth_icon.svg

<?xml version="1.0" encoding="UTF-8"?>
<svg width="38px" height="37px" viewBox="0 0 38 37" version="1.1" xmlns="http://www.w3.org/2000/svg" xmlns:xlink="http://www.w3.org/1999/xlink">
    <!-- Generator: Sketch 45.2 (43514) - http://www.bohemiancoding.com/sketch -->
    <title>growth_icon</title>
    <desc>Created with Sketch.</desc>
    <defs>
        <path d="M35.2513443,2.71451495 L30.6062494,2.71451495 L30.6062494,0 L27.5659594,0 L27.5659594,2.71451495 L9.7840398,2.71451495 L9.7840398,0 L6.74374986,0 L6.74374986,2.71451495 L2.09865496,2.71451495 C0.941634981,2.71451495 0,3.65573493 0,4.8127549 L0,34.0569743 C0,35.2139943 0.941634981,36.1556293 2.09865496,36.1556293 L35.2513443,36.1556293 C36.4083643,36.1556293 37.3499992,35.2144093 37.3499992,34.0569743 L37.3499992,4.8127549 C37.3499992,3.65573493 36.4083643,2.71451495 35.2513443,2.71451495 Z M34.3097093,33.1153393 L3.04028994,33.1153393 L3.04028994,13.8950297 L34.3101243,13.8950297 L34.3101243,33.1153393 L34.3097093,33.1153393 Z M34.3097093,10.8551548 L3.04028994,10.8551548 L3.04028994,5.75480488 L6.74416486,5.75480488 L6.74416486,7.31105485 L9.7844548,7.31105485 L9.7844548,5.75480488 L27.5667894,5.75480488 L27.5667894,7.31105485 L30.6070794,7.31105485 L30.6070794,5.75480488 L34.3105393,5.75480488 L34.3105393,10.8551548 L34.3097093,10.8551548 Z" id="path-1"></path>
        <path d="M30.4045594,17.1386697 L26.9301795,17.1386697 L26.9301795,20.6130496 C30.4045594,20.6130496 26.9301795,20.6130496 30.4045594,20.6130496 L30.4045594,17.1386697 Z" id="path-2"></path>
        <path d="M20.2333246,17.1386697 L16.7589447,17.1386697 L16.7589447,20.6130496 C20.2333246,20.6130496 16.7589447,20.6130496 20.2333246,20.6130496 L20.2333246,17.1386697 Z" id="path-3"></path>
        <path d="M10.0662398,17.1386697 L6.59185987,17.1386697 L6.59185987,20.6130496 C10.0662398,20.6130496 6.59185987,20.6130496 10.0662398,20.6130496 L10.0662398,17.1386697 Z" id="path-4"></path>
        <path d="M16.7805247,29.2425594 C20.2549046,29.2425594 16.7805247,29.2425594 20.2549046,29.2425594 L20.2549046,25.7681795 L16.7805247,25.7681795 L16.7805247,29.2425594 Z" id="path-5"></path>
        <path d="M26.9517595,29.2425594 C30.4261394,29.2425594 26.9517595,29.2425594 30.4261394,29.2425594 L30.4261394,25.7681795 L26.9517595,25.7681795 L26.9517595,29.2425594 Z" id="path-6"></path>
        <path d="M6.61343987,29.2425594 C10.0878198,29.2425594 6.61343987,29.2425594 10.0878198,29.2425594 L10.0878198,25.7681795 L6.61343987,25.7681795 L6.61343987,29.2425594 Z" id="path-7"></path>
    </defs>
    <g id="Round-3" stroke="none" stroke-width="1" fill="none" fill-rule="evenodd">
        <g id="Home" transform="translate(-1118.000000, -1374.000000)">
            <g id="Group-3" transform="translate(1051.000000, 1374.000000)">
                <g id="growth_icon" transform="translate(67.000000, 0.000000)">
                    <path d="M3.45528993,14.3100297 L3.45528993,13.8950297 L3.04028994,14.3100297 L3.45528993,14.3100297 Z M33.8951243,14.3100297 L34.3101243,14.3100297 L33.8951243,13.8950297 L33.8951243,14.3100297 Z M33.8951243,32.7003393 L33.8951243,33.1153393 L34.3101243,32.7003393 L33.8951243,32.7003393 Z M3.45528993,32.7003393 L3.04028994,32.7003393 L3.45528993,33.1153393 L3.45528993,32.7003393 Z M3.45528993,32.7003393 L3.45528993,14.3100297 L33.8951243,14.3100297 L33.8951243,32.7003393 L3.45528993,32.7003393 Z M30.8411394,29.6575594 L26.5367595,29.6575594 L26.5367595,25.3531795 L30.8411394,25.3531795 L30.8411394,29.6575594 Z M26.5151795,16.7236697 L30.8195594,16.7236697 L30.8195594,21.0280496 L26.5151795,21.0280496 L26.5151795,16.7236697 Z M20.6699046,29.6575594 L16.3655247,29.6575594 L16.3655247,25.3531795 L20.6699046,25.3531795 L20.6699046,29.6575594 Z M16.3439447,16.7236697 L20.6483246,16.7236697 L20.6483246,21.0280496 L16.3439447,21.0280496 L16.3439447,16.7236697 Z M10.5028198,29.6575594 L6.19843988,29.6575594 L6.19843988,25.3531795 L10.5028198,25.3531795 L10.5028198,29.6575594 Z M6.17685988,16.7236697 L10.4812398,16.7236697 L10.4812398,21.0280496 L6.17685988,21.0280496 L6.17685988,16.7236697 Z" id="Shape" stroke="#2E2D38" stroke-width="0.829999983"></path>
                    <path d="M27.1513745,6.16938988 L10.1990398,6.16938988 L10.1990398,7.72563984 L6.32916487,7.72563984 L6.32916487,6.16938988 L3.45528993,6.16938988 L3.45528993,10.4401548 L33.8947093,10.4401548 L33.8947093,6.16938988 L31.0212494,6.16938988 L31.0212494,7.72563984 L27.1513745,7.72563984 L27.1513745,6.16938988 Z" id="Shape" stroke="#2E2D38" stroke-width="0.829999983"></path>
                    <g id="Shape" fill-rule="nonzero">
                        <use fill="#FFFFFF" fill-rule="evenodd" xlink:href="#path-1"></use>
                        <path stroke="#2E2D38" stroke-width="0.829999983" d="M7.15874986,0.414999992 L7.15874986,0 L6.74374986,0.414999992 L7.15874986,0.414999992 Z M9.36903981,0.414999992 L9.7840398,0.414999992 L9.36903981,0 L9.36903981,0.414999992 Z M27.9809594,0.414999992 L27.9809594,0 L27.5659594,0.414999992 L27.9809594,0.414999992 Z M30.1912494,0.414999992 L30.6062494,0.414999992 L30.1912494,0 L30.1912494,0.414999992 Z M7.15874986,0.414999992 L9.36903981,0.414999992 L9.36903981,3.12951494 L27.9809594,3.12951494 L27.9809594,0.414999992 L30.1912494,0.414999992 L30.1912494,3.12951494 L35.2513443,3.12951494 C36.1792705,3.12951494 36.9349993,3.88503743 36.9349993,4.8127549 L36.9349993,34.0569743 C36.9349993,34.9850552 36.179322,35.7406293 35.2513443,35.7406293 L2.09865496,35.7406293 C1.17083315,35.7406293 0.414999992,34.9847961 0.414999992,34.0569743 L0.414999992,4.8127549 C0.414999992,3.88503743 1.1707288,3.12951494 2.09865496,3.12951494 L7.15874986,3.12951494 L7.15874986,0.414999992 Z M34.7251243,33.5303393 L2.62528995,33.5303393 L2.62528995,13.4800297 L34.7251243,13.4800297 L34.7251243,33.5303393 Z M7.15916486,6.89605486 L9.36945481,6.89605486 L9.36945481,5.33980489 L27.9817894,5.33980489 L27.9817894,6.89605486 L30.1920794,6.89605486 L30.1920794,5.33980489 L34.7255393,5.33980489 L34.7255393,11.2701548 L2.62528995,11.2701548 L2.62528995,5.33980489 L7.15916486,5.33980489 L7.15916486,6.89605486 Z"></path>
                    </g>
                    <g id="Shape" fill-rule="nonzero">
                        <use fill="#FFFFFF" fill-rule="evenodd" xlink:href="#path-2"></use>
                        <path stroke="#2E2D38" stroke-width="0.829999983" d="M29.9895594,17.5536696 L27.3451795,17.5536696 L27.3451795,20.1980496 C28.6673694,20.1980496 28.6673694,20.1980496 28.6673694,20.1980496 C28.6673694,20.1980496 28.6673694,20.1980496 29.4332957,20.1980496 L29.9895594,17.5536696 Z"></path>
                    </g>
                    <g id="Shape" fill-rule="nonzero">
                        <use fill="#FFFFFF" fill-rule="evenodd" xlink:href="#path-3"></use>
                        <path stroke="#2E2D38" stroke-width="0.829999983" d="M19.8183246,17.5536696 L17.1739447,17.5536696 L17.1739447,20.1980496 C18.4961346,20.1980496 18.4961346,20.1980496 18.4961346,20.1980496 C18.4961346,20.1980496 18.4961346,20.1980496 19.2620609,20.1980496 L19.8183246,17.5536696 Z"></path>
                    </g>
                    <g id="Shape" fill-rule="nonzero">
                        <use fill="#FFFFFF" fill-rule="evenodd" xlink:href="#path-4"></use>
                        <path stroke="#2E2D38" stroke-width="0.829999983" d="M9.65123981,17.5536696 L7.00685986,17.5536696 L7.00685986,20.1980496 C8.32904983,20.1980496 8.32904983,20.1980496 8.32904983,20.1980496 C8.32904983,20.1980496 8.32904983,20.1980496 9.09497608,20.1980496 L9.65123981,17.5536696 Z"></path>
                    </g>
                    <g id="Shape" fill-rule="nonzero">
                        <use fill="#FFFFFF" fill-rule="evenodd" xlink:href="#path-5"></use>
                        <path stroke="#2E2D38" stroke-width="0.829999983" d="M17.7517884,28.8275594 C18.5177146,28.8275594 18.5177146,28.8275594 18.5177146,28.8275594 C18.5177146,28.8275594 18.5177146,28.8275594 19.2836409,28.8275594 L19.8399046,26.1831795 L17.1955247,26.1831795 L17.1955247,28.8275594 L17.7517884,28.8275594 Z"></path>
                    </g>
                    <g id="Shape" fill-rule="nonzero">
                        <use fill="#FFFFFF" fill-rule="evenodd" xlink:href="#path-6"></use>
                        <path stroke="#2E2D38" stroke-width="0.829999983" d="M27.9230232,28.8275594 C28.6889494,28.8275594 28.6889494,28.8275594 28.6889494,28.8275594 C28.6889494,28.8275594 28.6889494,28.8275594 29.4548757,28.8275594 L30.0111394,26.1831795 L27.3667594,26.1831795 L27.3667594,28.8275594 L27.9230232,28.8275594 Z"></path>
                    </g>
                    <g id="Shape" fill-rule="nonzero">
                        <use fill="#FFFFFF" fill-rule="evenodd" xlink:href="#path-7"></use>
                        <path stroke="#2E2D38" stroke-width="0.829999983" d="M7.58470358,28.8275594 C8.35062983,28.8275594 8.35062983,28.8275594 8.35062983,28.8275594 C8.35062983,28.8275594 8.35062983,28.8275594 9.11655608,28.8275594 L9.67281981,26.1831795 L7.02843986,26.1831795 L7.02843986,28.8275594 L7.58470358,28.8275594 Z"></path>
                    </g>
                </g>
            </g>
        </g>
    </g>
</svg>

<svg xmlns="http://www.w3.org/2000/svg" width="38" height="37" xmlns:xlink="http://www.w3.org/1999/xlink"><title>growth_icon</title><desc>Created with Sketch.</desc><defs><path id="a" d="M35.25 2.7H30.6V0h-3.03v2.7H9.77V0H6.75v2.7H2.1C.94 2.7 0 3.67 0 4.8v29.26c0 1.15.94 2.1 2.1 2.1h33.15c1.16 0 2.1-.95 2.1-2.1V4.8c0-1.14-.94-2.1-2.1-2.1zm-.94 30.42H3.05V13.9H34.3v19.22zm0-22.26H3.05v-5.1h3.7V7.3h3.04V5.76h17.8V7.3h3.03V5.76h3.7v5.1z"/><path id="b" d="M30.4 17.14h-3.47v3.47c3.47 0 0 0 3.47 0v-3.46z"/><path id="c" d="M20.23 17.14h-3.47v3.47c3.47 0 0 0 3.47 0v-3.46z"/><path id="d" d="M10.07 17.14H6.6v3.47c3.47 0 0 0 3.47 0v-3.46z"/><path id="e" d="M16.78 29.24c3.47 0 0 0 3.47 0v-3.47h-3.47v3.47z"/><path id="f" d="M26.95 29.24c3.48 0 0 0 3.48 0v-3.47h-3.48v3.47z"/><path id="g" d="M6.6 29.24c3.5 0 0 0 3.5 0v-3.47H6.6v3.47z"/></defs><g fill="none"><g><g><g><path id="Shape" stroke="#2E2D38" stroke-width=".83" d="M3.46 14.3v-.4l-.42.4h.42zm30.44 0h.4l-.4-.4v.4zm0 18.4v.42l.4-.42h-.4zm-30.44 0h-.42l.42.42v-.42zm0 0V14.3H33.9v18.4H3.46zm27.38-3.04h-4.3v-4.3h4.3v4.3zm-4.32-12.94h4.3v4.3h-4.3v-4.3zm-5.85 12.94h-4.3v-4.3h4.3v4.3zm-4.33-12.94h4.3v4.3h-4.3v-4.3zM10.5 29.66H6.2v-4.3h4.3v4.3zM6.18 16.72h4.3v4.3h-4.3v-4.3zM27.15 6.17H10.2v1.56H6.33V6.17H3.46v4.27H33.9V6.17H31v1.56h-3.87V6.17z"/><g id="Shape" fill-rule="nonzero" transform=""><use fill="#fff" fill-rule="evenodd" xlink:href="#a"/><path stroke="#2E2D38" stroke-width=".83" d="M7.16.4V0l-.42.4h.42zm2.2 0h.42l-.4-.4v.4zM28 .4V0l-.4.4h.4zm2.2 0h.43l-.4-.4v.4zM7.17.4h2.2v2.73H28V.4h2.2v2.73h5.07c.93 0 1.68.76 1.68 1.68v29.26c0 .93-.75 1.68-1.68 1.68H2.1c-.93 0-1.7-.76-1.7-1.68V4.8c0-.9.77-1.67 1.7-1.67h5.06V.4zm27.57 33.13H2.63V13.48h32.1v20.05zM7.16 6.9h2.2V5.34H28V6.9h2.2V5.34h4.55v5.93H2.63V5.34h4.53V6.9z"/></g><g id="Shape" fill-rule="nonzero"><use fill="#fff" fill-rule="evenodd" xlink:href="#b"/><path stroke="#2E2D38" stroke-width=".83" d="M30 17.55h-2.65v2.65c1.32 0 1.32 0 1.32 0s0 0 .76 0l.56-2.65z"/></g><g id="Shape" fill-rule="nonzero"><use fill="#fff" fill-rule="evenodd" xlink:href="#c"/><path stroke="#2E2D38" stroke-width=".83" d="M19.82 17.55h-2.65v2.65c1.33 0 1.33 0 1.33 0s0 0 .76 0l.56-2.65z"/></g><g id="Shape" fill-rule="nonzero"><use fill="#fff" fill-rule="evenodd" xlink:href="#d"/><path stroke="#2E2D38" stroke-width=".83" d="M9.65 17.55H7v2.65c1.33 0 1.33 0 1.33 0s0 0 .76 0l.55-2.65z"/></g><g id="Shape" fill-rule="nonzero"><use fill="#fff" fill-rule="evenodd" xlink:href="#e"/><path stroke="#2E2D38" stroke-width=".83" d="M17.75 28.83c.77 0 .77 0 .77 0s0 0 .76 0l.56-2.65H17.2v2.65h.55z"/></g><g id="Shape" fill-rule="nonzero"><use fill="#fff" fill-rule="evenodd" xlink:href="#f"/><path stroke="#2E2D38" stroke-width=".83" d="M27.92 28.83c.77 0 .77 0 .77 0s0 0 .75 0l.56-2.65h-2.63v2.65h.55z"/></g><g fill-rule="nonzero"><use fill="#fff" fill-rule="evenodd" xlink:href="#g"/><path stroke="#2E2D38" stroke-width=".83" d="M7.58 28.83c.77 0 .77 0 .77 0s0 0 .77 0l.55-2.65H7.03v2.65h.55z"/></g></g></g></g></g></svg>
